X:1
T:Oh Suzana
T:Oh Susanna ! 
T: Written by Stephan C. Foster (1826-1864) Piano arr.   J. Knuth
%%score ( 1 2 ) ( 3 4 ) { ( 5 7 ) | 6 }
L:1/8
M:2/4
K:G
V:1 treble+8 nm="Flûte" snm="Fl."
V:2 treble+8 
V:3 treble transpose=-14 nm="Saxophone Ténor" snm="Sax. T."
V:4 treble transpose=-14 
V:5 treble nm="Piano" snm="Pia."
V:7 treble 
V:6 bass 
V:1
 z | z4 | z4 | z4 | z4 | z4 | z4 | z4 | z3 G/A/ | B d d e | d B (G3/2 A/) | B B A G | A3 G/A/ | %13
 B d d3/2 e/ | d B G3/2- G/ | BB AA | G3 G/ A/ | B d de | dB G3/2 A/ | B B A G | A2 z G/A/ | %21
 Bd de | d B !fermata!G3/2 A/ | B B AA |[K:G] G2 z2 |[K:G] c2 c2 | e e2 e | d d B G | A3 G/A/ | %29
 B d d e | d B G3/2 A/ | B B A A | G2 z :| z | z4 | z4 | z4 | z4 | z4 | z4 | z4 | z2 z |] %42
V:2
 x | x4 | x4 | x4 | x4 | x4 | x4 | x4 | x4 | x4 | x4 | x4 | x4 | x4 | x4 | x4 | x4 | x4 | x4 | x4 | %20
 x4 | x4 | x4 | x4 |[K:G] x4 |[K:G] E2 E2 | G G2 G | G G G G | F3 G | G G G G | GG G3/2 G/ | %31
 G G F F | D2 x :| x | x4 | x4 | x4 | x4 | x4 | x4 | x4 | x3 |] %42
V:3
[K:A] z | z4 | z4 | z4 | z4 | z4 | z4 | z4 | z4 | z4 | z4 | z4 | z4 | z4 | z4 | z4 | z4 | z4 | z4 | %19
 z4 | z4 | z4 | z4 | z4 |[K:A] z4 |[K:A][K:bass] G,2 G,2 | C C2 C | B, B, G, B, | z4 | z4 | z4 | %31
 z4 | z2 z :| z | z4 | z4 | z4 | z4 | z4 | z4 | z4 | z2 z |] %42
V:4
[K:A] x | x4 | x4 | x4 | x4 | x4 | x4 | x4 | x4 | x4 | x4 | x4 | x4 | x4 | x4 | x4 | x4 | x4 | x4 | %19
 x4 | x4 | x4 | x4 | x4 |[K:A] x4 |[K:A][K:bass] C,2 C,2 | C, C,2 C, | G, G, G,2 | x4 | x4 | x4 | %31
 x4 | x3 :| x | x4 | x4 | x4 | x4 | x4 | x4 | x4 | x3 |] %42
V:5
!p! G/A/ | Bdde | dBG>A | BBAG | A3!f! [Gg]/[Aa]/ | [Bb][dd'][dd'][^d^d'] | [ee']>[dd'][cc'][Bb] | %7
 [Aa]e g/f/e/f/ | g3 z | [B,G]D[B,G]D | [B,G]D [B,G]D | [B,G]D [A,G]^C | z [A,DF][A,DF] z | %13
 [B,D]G[CE]G | [B,D]G[G,E]G | [B,D]G[A,D]F | z [B,DG][B,DG] z | B,/D/G/D/B,/G/[CE]/G/ | %18
 B,/D/G/D/B,/D/G/D/ | B,/D/B/D/A,/^C/G/C/ | A,/[DF]/[FA]/[EG]/[DF]/[CE]/[B,D]/[A,C]/ | %21
 B,/D/G/D/B,/G/[CE]/G/ | [G,B,]/D/G/D/[G,_B,]/E/G/E/ | [G,B,]/D/G/D/[A,C]/D/F/D/ | %24
[K:G] [G,B,]/D/G/D/ [G,B,]2 |[K:G] z [G,CE][G,CE][G,CE] | z [G,CE][G,CE][G,CE] | %27
 z [B,DG][B,DG][B,DG] | z [A,DF] [A,DF] z | z [B,DG] [D=FG][CEG] | z [B,DG] [B,DG][B,DG] | %31
 z [B,DA] z [A,CDF] | z [B,DG] [B,DG] :| G/A/ | Bdde | d>BGG/A/ | Bg/f/e/d/c/B/ | A3 G/A/ | Bdd^d | %39
 e>dd/c/B/A/ | GG G/F/B/A/ | G2 z |] %42
V:6
 z | G,[B,D] [B,D][B,D] | G,[B,D] [B,D][B,D] | E,[G,A,^C] [G,A,C][G,A,C] | D,[F,A,D] [F,A,D] z | %5
 G,[B,D] [B,D][B,D] | ^G,[B,DE] [B,DE][B,DE] | [A,^CE]2 [D,A,C][D,A,C] | [G,B,]3 z | [G,,G,]2 z2 | %10
 [G,,G,]2 z2 | [G,,G,]2 [E,,E,]2 | [D,,D,]2 z2 | [G,,G,]2 z2 | [G,,G,]2 [C,,C,]2 | %15
 [D,,D,]2 [D,,D,]2 | [G,,G,]2 z2 | [G,,G,]2 z2 | [G,,G,]2 z2 | [G,,G,]2 [E,,E,]2 | [D,,D,]2 z2 | %21
 [G,,G,]2 z2 | [G,,,G,,]2 [^C,,^C,]2 | [D,,D,]2 [D,,D,]2 |[K:G] [G,,,G,,]2 z2 |[K:G] [C,,C,]2 z2 | %26
 [C,,C,]2 z2 | [G,,,G,,]2 z2 | [D,,D,]2 z2 | [G,,G,]2 z2 | [G,,G,]2 z2 | [D,,D,] z [D,,D,] z | %32
 [G,,G,]2 z :| z | G,[G,B,][G,B,=F][G,CE] | G,[B,D] [B,D][B,D] | G,[B,D] [B,D][B,D] | %37
 F,[CDF] [CDF] z | G,[B,D][B,D][B,D] | E,[^G,B,D][A,C] z | [D,B,][D,G,] [D,A,][D,A,] | G,D,G,, |] %42
V:7
 x | x4 | x4 | x4 | x4 | x4 | x4 | x4 | x4 | x4 | x4 | x4 | x4 | x4 | x4 | x4 | x4 | x4 | x4 | x4 | %20
 x4 | x4 | x4 | x4 |[K:G] x4 |[K:G] x4 | x4 | x4 | x4 | x4 | x4 | x4 | x3 :| x | x4 | x4 | x4 | %37
 x4 | x4 | x4 | DB, CC | B,2 z |] %42

